X:1
T:Title
L:1/8
M:4/4
K:Eb
V:1 treble nm="Grand Piano"
V:1
 z4 z2[Q:1/4=100] GF | G3 E C2 G2 | F6 F=E | F2 D2 =B,2 F2 | E6 ED | C2 C2 =E2 FG | A2 A4 FG | %7
 A2 A2 c2 EF | G6 GF | G3 E C2 G2 | F6 F=E | F2 D2 =B,2 F2 | E6 ED | C2 C2 =E2 FG | A2 A4 FG | %15
 A2 c2 =B2 d2 | c6 G2 | c2 c2- c d2 c | BAAA- A2 F2 | B2 B2 d2 BF | G6 A2 | B2 A2 G2 F2 | %22
 E2 D4 EE | D3 D EDEF | G6 G2 | c2 c2 d3 c | BA A4 F2 | B2 B2 d2 BF | G6 A2 | B2 A2 G2 F2 | %30
 E2 D4 GF | G3 F E2 D2 | C6 GF | G3 E C2 G2 | F6 F=E | F2 D2 =B,2 F2 | E6 ED | C2 C2 =E2 FG | %38
 A2 A4 FG | A2 c2 G2 =B2 | c6 z2 |] %41

